X:7
T:Guy Fawkes
M:7/8
L:1/8
K:Am
Aee efde | cBA BAGE | Aee efdf | edc B2B2 | 
Aee efde | cBA BAGE | DFA cBcB | E^GB e2e2 ::
cAA ABGA | FED FDEB | cAA ABGA | cAB d2d2 |
cAA ABGA | FED FDEB | cAA GAFA | E^GB e2e2 :| "last time" E^GB e2c2 | BA4 |]
